X: 5
T: The Road To Glountane
R: reel
M: 4/4
L: 1/8
K: Dmaj
1 c>eB>A F2 a>f| e>ce>f a3 f|e>cB>A F>AA>B|c>BB>A c>BB>A|e>c (3BcB A2:|2 c>eB>A F2 A>F| E3 F A3 B|c2 e>c B>c A2|f2 e>c A>Bc>A|e>cB>c A2||


Tune 1615	Setting 1615

